X:23
T:Polonesse in G Dur no 21 ur Anders Larssons notbok
S:Ur Anders Larssons notbok (1810-1813)
O:Östra Ryd, Östergötland
R:Slängpolska
Z:Till abc av Olle Paulsson
B: Anders Larssons notbok
B:http://www.smus.se/earkiv/fmk/browselarge.php?lang=sw&katalogid=M+189&bildnr=00008
N:korrekturläs gärna
M:3/4
L:1/8
K:G
g2gbag|fedefd|g2gbag|fe d4:|
|:BA/2G/2 e2 d2|c2BABG|BA/2G/2 d2 c2|Bd e4|(de/2f/2) g2 B2|A2 G4:|

